style/svgs/types/text_type.svg

<?xml version="1.0" encoding="UTF-8"?>
<svg width="100px" height="100px" viewBox="0 0 100 100" version="1.1" xmlns="http://www.w3.org/2000/svg" xmlns:xlink="http://www.w3.org/1999/xlink">
    <title>Artboard Copy 289</title>
    <g id="Artboard-Copy-289" stroke="none" stroke-width="1" fill="none" fill-rule="evenodd">
        <path d="M52.2696158,73 C55.1302336,73 57.6202239,72.2883921 59.7395867,70.8651762 C61.8589495,69.4419603 63.5085029,67.4421861 64.6882467,64.8658537 C65.8679905,62.2895212 66.4578624,59.266486 66.4578624,55.796748 C66.4578624,52.3270099 65.8679905,49.3039747 64.6882467,46.7276423 C63.5085029,44.1513098 61.8589495,42.1515357 59.7395867,40.7283198 C57.6202239,39.3051039 55.151114,38.5934959 52.332257,38.5934959 C49.805726,38.5934959 47.5558605,39.237579 45.5826606,40.5257453 C43.6094608,41.8139115 42.1426111,43.5383921 41.1821117,45.699187 L41.0255086,45.699187 L41.0255086,29.7737127 C41.0255086,28.9218609 40.7801636,28.2466125 40.2894737,27.7479675 C39.7987838,27.2493225 39.167151,27 38.3945754,27 C37.6011194,27 36.9590464,27.2493225 36.4683565,27.7479675 C35.9776666,28.2466125 35.7323216,28.9218609 35.7323216,29.7737127 L35.7323216,70.3509485 C35.7323216,71.1612466 35.9672263,71.8001355 36.4370358,72.2676152 C36.9068453,72.7350949 37.5175977,72.9688347 38.2692929,72.9688347 C39.0209881,72.9688347 39.6421806,72.7299006 40.1328705,72.2520325 C40.6235604,71.7741644 40.8689054,71.1404697 40.8689054,70.3509485 L40.8689054,65.8631436 L40.9628673,65.8631436 C41.986008,68.0654923 43.4841782,69.8055556 45.4573781,71.0833333 C47.430578,72.3611111 49.7013239,73 52.2696158,73 Z M85.5008072,73 C87.5470886,73 89.4628673,72.6519874 91.2481434,71.9559621 C93.0334194,71.2599368 94.5733506,70.3042005 95.8679367,69.0887534 C97.1625229,67.8733062 98.1125821,66.465673 98.7181143,64.8658537 C98.801636,64.6165312 98.8694974,64.3620145 98.9216984,64.1023035 C98.9738995,63.8425926 99,63.6088528 99,63.401084 C99,62.736224 98.7859757,62.1908311 98.357927,61.7649051 C97.9298784,61.3389792 97.3817673,61.1260163 96.7135938,61.1260163 C96.128942,61.1260163 95.6539124,61.2610659 95.288505,61.5311653 C94.9230976,61.8012647 94.5629103,62.2791328 94.2079432,62.9647696 C93.3936067,64.730804 92.271284,66.086495 90.8409751,67.0318428 C89.4106662,67.9771906 87.6410505,68.4498645 85.5321279,68.4498645 C82.4627058,68.4498645 80.0040362,67.3175248 78.1561188,65.0528455 C76.3082015,62.7881662 75.3842428,59.7131888 75.3842428,55.8279133 C75.3842428,51.9634146 76.3134216,48.883243 78.1717791,46.5873984 C80.0301367,44.2915537 82.4835863,43.1436314 85.5321279,43.1436314 C87.5366484,43.1436314 89.2645033,43.6111111 90.7156926,44.5460705 C92.1668819,45.4810298 93.310085,46.862692 94.1453019,48.6910569 C94.5002691,49.3559169 94.8552363,49.8182023 95.2102034,50.0779133 C95.5651706,50.3376242 96.0349801,50.4674797 96.6196319,50.4674797 C97.2878054,50.4674797 97.8359165,50.2649051 98.2639651,49.8597561 C98.6920138,49.454607 98.9060381,48.9092141 98.9060381,48.2235772 C98.9060381,48.0365854 98.8799376,47.8340108 98.8277365,47.6158537 C98.7755355,47.3976965 98.7285545,47.1847335 98.6867937,46.9769648 C98.1647831,45.3771454 97.2617049,43.9487353 95.9775589,42.6917344 C94.693413,41.4347335 93.1378215,40.4374435 91.3107846,39.6998645 C89.4837477,38.9622855 87.5157679,38.5934959 85.4068453,38.5934959 C82.2956625,38.5934959 79.5812076,39.3102981 77.2634808,40.7439024 C74.945754,42.1775068 73.1500377,44.1876694 71.8763319,46.7743902 C70.6026262,49.3611111 69.9657733,52.3893406 69.9657733,55.8590786 C69.9657733,59.3495935 70.6078463,62.3778229 71.8919923,64.9437669 C73.1761382,67.5097109 74.9822947,69.4939024 77.3104617,70.8963415 C79.6386288,72.2987805 82.3687439,73 85.5008072,73 Z M26.9625444,73 C27.73512,73 28.3563126,72.7610659 28.8261221,72.2831978 C29.2959315,71.8053297 29.5308363,71.1508582 29.5308363,70.3197832 L29.5308363,49.6883469 C29.5308363,47.4444444 29.0088257,45.4914182 27.9648046,43.8292683 C26.9207836,42.1671183 25.4330535,40.8841463 23.5016145,39.9803523 C21.5701754,39.0765583 19.2994296,38.6246612 16.6893768,38.6246612 C13.7452373,38.6246612 11.1456248,39.2168022 8.89053923,40.401084 C6.63545366,41.5853659 5.05898181,43.1644083 4.16112367,45.1382114 C3.99408029,45.5121951 3.85835755,45.8861789 3.75395544,46.2601626 C3.64955333,46.6341463 3.59735228,46.9873532 3.59735228,47.3197832 C3.59735228,48.0054201 3.82181681,48.550813 4.27074588,48.9559621 C4.71967495,49.3611111 5.27822624,49.5636856 5.94639974,49.5636856 C6.44752987,49.5636856 6.88079862,49.4701897 7.24620601,49.2831978 C7.61161339,49.096206 7.9091594,48.7845528 8.13884404,48.3482385 C8.99494134,46.5614273 10.1068238,45.2420958 11.4744914,44.3902439 C12.8421591,43.5383921 14.5282531,43.1124661 16.5327737,43.1124661 C18.9549026,43.1124661 20.8445808,43.7409666 22.2018082,44.9979675 C23.5590356,46.2549684 24.2376493,47.9638663 24.2376493,50.1246612 L24.2376493,52.7425474 L14.2463675,53.303523 C10.2999677,53.5736224 7.27230653,54.5553297 5.16338392,56.248645 C3.05446131,57.9419603 2,60.2222222 2,63.0894309 C2,65.063234 2.46980949,66.7929088 3.40942848,68.2784553 C4.34904747,69.7640018 5.65929394,70.9171183 7.3401679,71.7378049 C9.02104187,72.5584914 10.957701,72.9688347 13.1501453,72.9688347 C14.7579378,72.9688347 16.2926488,72.6987353 17.7542783,72.1585366 C19.2159079,71.6183379 20.5209342,70.8547877 21.6693574,69.8678862 C22.8177806,68.8809846 23.7051986,67.7226739 24.3316112,66.3929539 L24.4255731,66.3929539 L24.4255731,70.4444444 C24.467334,71.2131888 24.717899,71.8313008 25.1772683,72.2987805 C25.6366376,72.7662602 26.2317296,73 26.9625444,73 Z M51.1107523,68.4498645 C49.1271123,68.4498645 47.3783769,67.9252484 45.8645463,66.8760163 C44.3507157,65.8267841 43.1657518,64.3568202 42.3096545,62.4661247 C41.4535572,60.5754291 41.0255086,58.362692 41.0255086,55.8279133 C41.0255086,53.2931346 41.4587773,51.0752033 42.3253148,49.1741192 C43.1918523,47.2730352 44.3820364,45.7978771 45.895867,44.748645 C47.4096976,43.6994128 49.1479927,43.1747967 51.1107523,43.1747967 C53.1361533,43.1747967 54.8901087,43.6890244 56.3726187,44.7174797 C57.8551286,45.745935 58.9983317,47.2055104 59.802228,49.096206 C60.6061242,50.9869015 61.0080723,53.2204155 61.0080723,55.796748 C61.0080723,58.3938573 60.6009041,60.6377597 59.7865676,62.5284553 C58.9722312,64.4191509 57.823808,65.8787263 56.341298,66.9071816 C54.8587881,67.9356369 53.1152728,68.4498645 51.1107523,68.4498645 Z M14.4342912,68.6368564 C12.3462491,68.6368564 10.6549349,68.1174345 9.36034872,67.0785908 C8.06576257,66.0397471 7.41846949,64.6788618 7.41846949,62.995935 C7.41846949,61.3545619 8.05532235,60.0248419 9.32902809,59.0067751 C10.6027338,57.9887082 12.4610914,57.3965673 14.9041007,57.2303523 L24.2376493,56.6382114 L24.2376493,59.8794038 C24.2376493,61.5207769 23.7991605,63.0063234 22.9221828,64.3360434 C22.045205,65.6657633 20.8654612,66.7149955 19.3829512,67.4837398 C17.9004413,68.2524842 16.250888,68.6368564 14.4342912,68.6368564 Z" id="􀅯" fill="#3E3E3E" fill-rule="nonzero"></path>
    </g>
</svg>

<svg xmlns="http://www.w3.org/2000/svg" width="100" height="100" viewBox="0 0 100 100"><path fill="#3E3E3E" fill-rule="nonzero" d="M52.27 73c2.86 0 5.35-.712 7.47-2.135 2.119-1.423 3.769-3.423 4.948-6 1.18-2.575 1.77-5.599 1.77-9.068 0-3.47-.59-6.493-1.77-9.07-1.18-2.576-2.83-4.575-4.948-5.999-2.12-1.423-4.589-2.135-7.408-2.135-2.526 0-4.776.645-6.75 1.933a11.753 11.753 0 0 0-4.4 5.173h-.156V29.774c0-.852-.246-1.527-.737-2.026-.49-.499-1.122-.748-1.894-.748-.794 0-1.436.25-1.927.748-.49.499-.736 1.174-.736 2.026V70.35c0 .81.235 1.45.705 1.917.47.467 1.08.7 1.832.7s1.373-.238 1.864-.716c.49-.478.736-1.112.736-1.901v-4.488h.094c1.023 2.202 2.521 3.943 4.494 5.22C47.431 72.361 49.701 73 52.27 73Zm33.23 0c2.047 0 3.963-.348 5.748-1.044 1.785-.696 3.325-1.652 4.62-2.867 1.295-1.216 2.245-2.623 2.85-4.223.084-.25.151-.504.204-.764.052-.26.078-.493.078-.7 0-.666-.214-1.211-.642-1.637-.428-.426-.976-.639-1.644-.639-.585 0-1.06.135-1.425.405-.366.27-.726.748-1.081 1.434-.814 1.766-1.937 3.121-3.367 4.067-1.43.945-3.2 1.418-5.309 1.418-3.07 0-5.528-1.132-7.376-3.397-1.848-2.265-2.772-5.34-2.772-9.225 0-3.865.93-6.945 2.788-9.24 1.858-2.296 4.312-3.444 7.36-3.444 2.005 0 3.733.467 5.184 1.402 1.45.935 2.594 2.317 3.43 4.145.354.665.71 1.127 1.064 1.387.355.26.825.39 1.41.39.668 0 1.216-.203 1.644-.608.428-.405.642-.95.642-1.636 0-.187-.026-.39-.078-.608a17.93 17.93 0 0 1-.141-.639c-.522-1.6-1.425-3.028-2.71-4.285-1.284-1.257-2.84-2.255-4.666-2.992-1.827-.738-3.795-1.107-5.904-1.107-3.111 0-5.826.717-8.144 2.15-2.317 1.435-4.113 3.445-5.387 6.031-1.273 2.587-1.91 5.615-1.91 9.085 0 3.49.642 6.519 1.926 9.085 1.284 2.566 3.09 4.55 5.418 5.952C79.64 72.3 82.37 73 85.5 73Zm-58.537 0c.772 0 1.393-.239 1.863-.717s.705-1.132.705-1.963V49.688c0-2.244-.522-4.197-1.566-5.859s-2.532-2.945-4.463-3.849c-1.932-.903-4.203-1.355-6.813-1.355-2.944 0-5.543.592-7.798 1.776-2.256 1.184-3.832 2.763-4.73 4.737a8.074 8.074 0 0 0-.407 1.122 3.947 3.947 0 0 0-.157 1.06c0 .685.225 1.23.674 1.636.449.405 1.007.608 1.675.608.502 0 .935-.094 1.3-.28.366-.188.663-.5.893-.936.856-1.787 1.968-3.106 3.335-3.958 1.368-.852 3.054-1.278 5.059-1.278 2.422 0 4.312.629 5.669 1.886 1.357 1.257 2.036 2.966 2.036 5.127v2.618l-9.992.56c-3.946.27-6.974 1.252-9.083 2.946C3.054 57.942 2 60.222 2 63.089c0 1.974.47 3.704 1.41 5.19.939 1.485 2.25 2.638 3.93 3.459 1.681.82 3.618 1.23 5.81 1.23 1.608 0 3.143-.27 4.604-.81a12.715 12.715 0 0 0 3.915-2.29 10.371 10.371 0 0 0 2.663-3.475h.094v4.051c.041.77.292 1.387.751 1.855.46.467 1.055.701 1.786.701Zm24.148-4.55c-1.984 0-3.733-.525-5.246-1.574-1.514-1.05-2.7-2.52-3.555-4.41-.856-1.89-1.284-4.103-1.284-6.638s.433-4.753 1.3-6.654c.866-1.901 2.056-3.376 3.57-4.425 1.514-1.05 3.252-1.574 5.215-1.574 2.025 0 3.78.514 5.262 1.542 1.482 1.029 2.625 2.489 3.43 4.38.803 1.89 1.205 4.123 1.205 6.7 0 2.597-.407 4.84-1.221 6.731-.815 1.891-1.963 3.35-3.446 4.38-1.482 1.028-3.226 1.542-5.23 1.542Zm-36.677.187c-2.088 0-3.78-.52-5.074-1.558-1.294-1.04-1.942-2.4-1.942-4.083 0-1.641.637-2.971 1.911-3.99 1.274-1.017 3.132-1.61 5.575-1.776l9.334-.592v3.241c0 1.642-.439 3.127-1.316 4.457s-2.057 2.379-3.539 3.148c-1.483.768-3.132 1.153-4.949 1.153Z"/></svg>
